X: 14
T: duRoy
M: 6/4
L: 1/8
K:C clef=treble-8 octave=1 
V:1
F,12| F,12| E,12| A,12|
A,12| E,12| D,12| C,12|
C,12| E,12| E,12| F,12|
A,12| G,12| F,12| E,12|
E,12| E,12| F,12| G,12|
F,12| E,12| D,12| C,12|
C,12| C,12| D,12| C,12|
C,12| G,12| F,12| A,12|
G,12| G,12| E,12| F,12|
E,12| D,12| C,12| C,12|
F,12| G,12| A,12| A,12|
E,12| D,12| C,12| C,12|
C,12|

